X: 572
T: Absynthe Makes The Heart Grow Fonder
R: reel
M: 4/4
K: Eminor
|:e3e dcBA|e2f/g/a g2fe|zABe ffBA|Befg a3a|
bgab c'2e/e/e|a3g/f/ e3z|BABf eeBA|1 Bde2 fzgf:|2 Bde2 f4||
|:Bedc BGGG|AEF/G/A B^c^de|fe^ga beee|a3f/e/ d4|
Bedc BGGG|AEEE EFGA|BABf eeBA|1 B^de2 f4:|2 B^de2 fz^gf||

